T: Our Last Night Together
M: 4/4
L: 1/8
K: Dmaj
fdAF GECE | DEFA dfga | bagf edcd | ecdB Aa^ga |fdAF G2 CE | D2 FA d2 ga | bagf e2 cd | e2 dc d :|FDFA fedc | BGBd gfed | cAce agfe | dcde fdAG |F2 DA f2 dc | B2 Gd g2 ed | c2 Ae aece | d2 dc d :||: (3a^ga | ~ & ~ |: (3BAG | ~
